assets/Man artist/Medium/Flat/man_artist_flat_medium.svg

<svg width="32" height="32" viewBox="0 0 32 32" fill="none" xmlns="http://www.w3.org/2000/svg">
<path d="M8.99996 18.0145C10.9025 16.4434 13.342 15.5 16 15.5C18.658 15.5 21.0974 16.4434 23 18.0145L25.1937 23.9782L23 30H8.99996L7.08008 23.9782L8.99996 18.0145Z" fill="#E6E6E6"/>
<path d="M16 20.4727C16.0019 21.8717 17.1812 22.9999 18.62 22.9999V21.3869C18.62 20.8294 18.433 20.3147 18.1171 19.8971C19.465 19.698 20.5 18.5711 20.5 17.2142C20.5 15.717 19.24 14.5 17.69 14.5H14.31C12.76 14.5 11.5 15.717 11.5 17.2142C11.5 18.5711 12.535 19.698 13.8829 19.8971C13.567 20.3147 13.38 20.8294 13.38 21.3869V22.9999C14.8188 22.9999 15.9981 21.8717 16 20.4727Z" fill="#F92F60"/>
<path d="M5.00018 26.5C4.98028 23.09 6.5822 20.03 8.99999 18V29.98L5.02008 30L5.00018 26.5Z" fill="#D3D3D3"/>
<path d="M23 30V18C25.44 20.0234 27 23.0785 27 26.4942V30H23Z" fill="#D3D3D3"/>
<path d="M27.5 23.1001C28.05 23.1001 28.5 23.5446 28.5 24.0879V26.3501H26.5V24.0879C26.5 23.5446 26.94 23.1001 27.5 23.1001Z" fill="#BB806E"/>
<path d="M25.2121 20.75C24.9708 22.1148 24.9342 23.5141 25.1083 24.9L25.6583 29.27C25.6983 29.55 25.9383 29.77 26.2183 29.77C26.5083 29.77 26.7483 29.56 26.7783 29.27L27.3283 24.9C27.4959 23.5126 27.4613 22.1162 27.2215 20.75L26.1992 20.3555L25.2121 20.75Z" fill="#8C5543"/>
<path d="M27.2266 20.75C27.1066 20.08 27.01 19.41 26.8 18.76H25.6C25.38 19.41 25.327 20.08 25.207 20.75H27.2266Z" fill="#E6E6E6"/>
<path d="M24.6841 16.75L25.3867 16.5469C25.6867 16.5469 26.0703 16.9852 26.0703 17.2852C26.0703 17.7252 26.1967 17.7969 26.6367 17.7969C27.0592 17.8065 27.4369 17.7973 27.481 17.391C27.4837 17.427 27.485 17.4635 27.485 17.5C27.485 18.33 26.815 19 25.985 19C25.155 19 24.485 18.33 24.485 17.5C24.485 17.25 24.545 17.02 24.655 16.81C24.6645 16.7898 24.6743 16.7698 24.6841 16.75Z" fill="#F3AD61"/>
<path d="M27.6549 15.07C27.5949 15.02 27.5249 15 27.4549 15C26.2449 15.08 25.2249 15.65 24.6849 16.75H25.3549C25.6549 16.75 25.8949 16.99 25.8949 17.29C25.8949 17.73 26.2349 18.11 26.6749 18.11C27.1149 18.12 27.4649 17.77 27.4849 17.34C27.4849 17.29 27.4749 17.24 27.4649 17.19V17.18C27.3149 16.53 27.4149 15.98 27.7249 15.43C27.7849 15.31 27.7549 15.16 27.6549 15.07Z" fill="#5092FF"/>
<path d="M24.7018 24.74C24.3284 24.74 24.0096 25.06 24.0005 25.47C23.9913 25.74 24.1189 25.98 24.3101 26.12C24.128 26.25 24.0005 26.48 24.0005 26.74C24.0005 27 24.1189 27.23 24.3101 27.36C24.128 27.49 24.0005 27.72 24.0005 27.98C24.0005 28.24 24.1189 28.47 24.3101 28.6C24.1189 28.74 24.0005 28.98 24.0005 29.25C24.0096 29.66 24.3284 29.98 24.7018 29.98H27.7076C28.1448 29.98 28.5 29.59 28.5 29.11V25.6C28.5 25.12 28.1448 24.73 27.7076 24.73H24.7018V24.74Z" fill="#C68D7B"/>
<path d="M4.91851 29.9999H14.5251L12.3751 24.0999C11.7387 22.3594 10.148 21.1618 8.3321 21.0151C8.2074 21.005 7.98505 21.0378 7.85941 21.0507C5.1349 21.332 2.82851 24.2399 3.93851 27.3099L4.91851 29.9999Z" fill="#FFCE7C"/>
<path d="M8.38502 21.02C8.24502 21.01 8.09502 21 7.95502 21C4.69502 21 2.42502 24.24 3.53502 27.31L4.51502 30H5.40502L4.42502 27.31C3.36502 24.39 5.37502 21.3 8.38502 21.02Z" fill="#E19747"/>
<path d="M8.24 25.24C8.92483 25.24 9.48 24.6848 9.48 24C9.48 23.3152 8.92483 22.76 8.24 22.76C7.55517 22.76 7 23.3152 7 24C7 24.6848 7.55517 25.24 8.24 25.24Z" fill="#F92F60"/>
<path d="M11.24 28.24C11.9248 28.24 12.48 27.6848 12.48 27C12.48 26.3152 11.9248 25.76 11.24 25.76C10.5552 25.76 10 26.3152 10 27C10 27.6848 10.5552 28.24 11.24 28.24Z" fill="#5092FF"/>
<path d="M7.24 29.1299C7.92483 29.1299 8.48 28.5747 8.48 27.8899C8.48 27.2051 7.92483 26.6499 7.24 26.6499C6.55517 26.6499 6 27.2051 6 27.8899C6 28.5747 6.55517 29.1299 7.24 29.1299Z" fill="#86D72F"/>
<path d="M16 18.5C14.9 18.5 14 17.5924 14 16.4832V14.5168C14 13.4076 14.9 12.5 16 12.5C17.1 12.5 18 13.4076 18 14.5168V16.4832C18 17.5924 17.1 18.5 16 18.5Z" fill="#B87A66"/>
<path d="M12.75 10.625C12.75 11.5225 12.0225 12.25 11.125 12.25C10.2275 12.25 9.5 11.5225 9.5 10.625C9.5 9.72754 10.2275 9 11.125 9C12.0225 9 12.75 9.72754 12.75 10.625Z" fill="#BB806E"/>
<path d="M22.75 10.625C22.75 11.5225 22.0225 12.25 21.125 12.25C20.2275 12.25 19.5 11.5225 19.5 10.625C19.5 9.72754 20.2275 9 21.125 9C22.0225 9 22.75 9.72754 22.75 10.625Z" fill="#BB806E"/>
<path d="M15.5297 3C12.6133 3 10.2983 5.40694 10.5139 8.24448L10.9225 13.9306C11.104 15.7192 12.5452 17 14.3155 17H17.6972C19.4561 17 20.9086 15.7303 21.0789 13.9416L21.4874 8.25552C21.6917 5.41798 19.388 3.01104 16.4716 3.01104H15.5297V3Z" fill="#C68D7B"/>
<path d="M12.2227 8.69897C12.3127 8.82897 12.4727 8.89897 12.6227 8.89897C12.7327 8.89897 12.8427 8.86897 12.9327 8.78897C12.9327 8.78897 12.9379 8.78574 12.9439 8.78175C13.0205 8.73062 13.4626 8.43548 14.1027 8.51897C14.3727 8.55897 14.6327 8.35897 14.6627 8.07897C14.7027 7.80897 14.5027 7.54897 14.2227 7.51897C13.1525 7.39363 12.3984 7.92828 12.3188 7.98472C12.3158 7.98682 12.3127 7.98897 12.3127 7.98897C12.0927 8.15897 12.0527 8.47897 12.2227 8.69897Z" fill="#593B39"/>
<path d="M19.0454 8.79894C19.1454 8.86894 19.2454 8.89894 19.3554 8.89894C19.5054 8.89894 19.6554 8.83894 19.7554 8.70894C19.9254 8.48894 19.8854 8.16894 19.6654 7.99894C19.6654 7.99894 19.6623 7.99679 19.6593 7.99469C19.5797 7.93826 18.8256 7.40361 17.7554 7.52894C17.4854 7.55894 17.2854 7.80894 17.3154 8.08894C17.3454 8.35894 17.5954 8.55894 17.8754 8.52894C18.5359 8.45124 18.9888 8.76035 19.0418 8.79648L19.0454 8.79894Z" fill="#593B39"/>
<path d="M12.0073 10.28C12.1573 9.65995 12.7173 9.19995 13.3873 9.19995C14.0873 9.19995 14.6673 9.68995 14.7873 10.35C14.8173 10.5 14.7073 10.63 14.5573 10.63H12.2773C12.0973 10.63 11.9673 10.45 12.0073 10.28Z" fill="white"/>
<path d="M19.6573 10.28C19.5073 9.65995 18.9473 9.19995 18.2773 9.19995C17.5873 9.19995 17.0073 9.68995 16.8773 10.35C16.8473 10.5 16.9573 10.63 17.1073 10.63H19.3873C19.5673 10.63 19.6973 10.46 19.6573 10.28Z" fill="white"/>
<path d="M12.6874 10.39C12.6874 9.88998 13.0974 9.47998 13.5974 9.47998C14.1074 9.47998 14.5174 9.88998 14.5074 10.39C14.5074 10.47 14.4974 10.55 14.4774 10.63H12.7174C12.6974 10.55 12.6874 10.47 12.6874 10.39Z" fill="#7D4533"/>
<path d="M18.9773 10.39C18.9773 9.88998 18.5673 9.47998 18.0673 9.47998C17.5673 9.47998 17.1573 9.88998 17.1573 10.39C17.1573 10.47 17.1673 10.55 17.1873 10.63H18.9473C18.9673 10.55 18.9773 10.47 18.9773 10.39Z" fill="#7D4533"/>
<path d="M13.6073 9.87012C13.8973 9.87012 14.1273 10.1001 14.1273 10.3901C14.1273 10.4801 14.0973 10.5601 14.0673 10.6301H13.1473C13.1073 10.5601 13.0873 10.4801 13.0873 10.3901C13.0873 10.1001 13.3173 9.87012 13.6073 9.87012Z" fill="black"/>
<path d="M18.0674 9.87012C17.7774 9.87012 17.5474 10.1001 17.5474 10.3901C17.5474 10.4801 17.5674 10.5601 17.6074 10.6301H18.5274C18.5674 10.5601 18.5874 10.4801 18.5874 10.3901C18.5874 10.1001 18.3574 9.87012 18.0674 9.87012Z" fill="black"/>
<path d="M13.4473 10.0301C13.4473 10.1185 13.3757 10.1901 13.2873 10.1901C13.199 10.1901 13.1273 10.1185 13.1273 10.0301C13.1273 9.94175 13.199 9.87012 13.2873 9.87012C13.3757 9.87012 13.4473 9.94175 13.4473 10.0301Z" fill="white"/>
<path d="M17.9473 10.0301C17.9473 10.1185 17.8757 10.1901 17.7873 10.1901C17.699 10.1901 17.6273 10.1185 17.6273 10.0301C17.6273 9.94175 17.699 9.87012 17.7873 9.87012C17.8757 9.87012 17.9473 9.94175 17.9473 10.0301Z" fill="white"/>
<path d="M15.6446 10.3149L15.1488 12.0533C15.0459 12.4092 15.2891 12.7751 15.6352 12.7751H16.3648C16.7109 12.7751 16.9541 12.4092 16.8512 12.0533L16.3554 10.3149C16.2526 9.92857 15.7568 9.92857 15.6446 10.3149Z" fill="#AB6A55"/>
<path d="M16.0005 13.7059C15.45 13.7059 14.9301 13.5671 14.4918 13.3215C14.3389 13.2361 14.186 13.4176 14.2777 13.5671C14.6447 14.1544 15.2767 14.5496 16.0005 14.5496C16.7243 14.5496 17.3563 14.1544 17.7233 13.5671C17.8151 13.4176 17.652 13.2467 17.5093 13.3215C17.0709 13.5671 16.551 13.7059 16.0005 13.7059Z" fill="#990838"/>
<path d="M20.7781 4.36864L21.1944 4.58212C21.963 4.96639 22.3899 5.82031 22.2085 6.65288L21.6534 9.70565C21.6 10.0045 21.3438 10.2287 21.045 10.2394C21.045 10.2394 21.109 9.38543 21.141 8.83038C21.1624 8.54218 21.045 8.26466 20.8315 8.07253L20.6393 7.90174C20.3831 7.67759 20.2444 7.35737 20.2444 7.02647V6.17255C20.2444 5.92705 20.0843 5.72424 19.8494 5.6602C19.2196 5.50009 17.864 5.23324 15.9959 5.23324C14.1279 5.23324 12.7723 5.50009 12.1425 5.6602C11.9076 5.71357 11.7475 5.92705 11.7475 6.17255V7.02647C11.7475 7.36804 11.6087 7.67759 11.3525 7.91242L11.1711 8.07253C10.9576 8.25399 10.8508 8.54218 10.8615 8.83038C10.8935 9.38543 10.9576 10.25 10.9576 10.25C10.6587 10.2394 10.3918 10.0152 10.3385 9.71633L9.7834 6.66356C9.62329 5.82031 10.0503 4.96639 10.8188 4.5928L11.2351 4.37932C11.534 4.22988 11.8009 4.03775 12.0357 3.80292L16.8285 2.44732C17.6505 2.1698 18.5578 2.3726 19.1663 2.98102L19.9775 3.79225C20.2124 4.02708 20.4792 4.21921 20.7781 4.36864Z" fill="#593B39"/>
<path d="M8.995 5.72C8.995 5.27 9.225 4.86 9.615 4.63L9.88499 4.47C12.545 2.85 15.605 2 18.725 2C21.085 2 22.995 3.91 22.995 6.27C22.995 6.67 22.665 7 22.265 7H10.275C9.565 7 8.995 6.43 8.995 5.72Z" fill="#212121"/>
</svg>

<svg xmlns="http://www.w3.org/2000/svg" width="32" height="32" fill="none"><path fill="#E6E6E6" d="M9 18.015a10.957 10.957 0 0 1 7-2.515c2.658 0 5.097.943 7 2.515l2.194 5.963L23 30H9l-1.92-6.022L9 18.015Z"/><path fill="#F92F60" d="M16 20.473C16.002 21.872 17.181 23 18.62 23v-1.613a2.46 2.46 0 0 0-.503-1.49c1.348-.199 2.383-1.326 2.383-2.683 0-1.497-1.26-2.714-2.81-2.714h-3.38c-1.55 0-2.81 1.217-2.81 2.714 0 1.357 1.035 2.484 2.383 2.683a2.46 2.46 0 0 0-.503 1.49V23c1.439 0 2.618-1.128 2.62-2.527Z"/><path fill="#D3D3D3" d="M5 26.5c-.02-3.41 1.582-6.47 4-8.5v11.98L5.02 30 5 26.5ZM23 30V18c2.44 2.023 4 5.078 4 8.494V30h-4Z"/><path fill="#BB806E" d="M27.5 23.1c.55 0 1 .445 1 .988v2.262h-2v-2.262a.99.99 0 0 1 1-.988Z"/><path fill="#8C5543" d="M25.212 20.75a13.893 13.893 0 0 0-.104 4.15l.55 4.37c.04.28.28.5.56.5.29 0 .53-.21.56-.5l.55-4.37a14.163 14.163 0 0 0-.107-4.15l-1.022-.395-.987.395Z"/><path fill="#E6E6E6" d="M27.227 20.75c-.12-.67-.217-1.34-.427-1.99h-1.2c-.22.65-.273 1.32-.393 1.99h2.02Z"/><path fill="#F3AD61" d="m24.684 16.75.703-.203c.3 0 .683.438.683.738 0 .44.127.512.567.512.422.01.8 0 .844-.406A1.498 1.498 0 0 1 25.985 19a1.498 1.498 0 0 1-1.33-2.19l.03-.06Z"/><path fill="#5092FF" d="M27.655 15.07a.306.306 0 0 0-.2-.07c-1.21.08-2.23.65-2.77 1.75h.67c.3 0 .54.24.54.54 0 .44.34.82.78.82.44.01.79-.34.81-.77 0-.05-.01-.1-.02-.15v-.01c-.15-.65-.05-1.2.26-1.75.06-.12.03-.27-.07-.36Z"/><path fill="#C68D7B" d="M24.702 24.74c-.374 0-.692.32-.702.73-.009.27.119.51.31.65a.765.765 0 0 0-.31.62c0 .26.119.49.31.62a.765.765 0 0 0-.31.62c0 .26.119.49.31.62a.798.798 0 0 0-.31.65c.01.41.328.73.702.73h3.006c.437 0 .792-.39.792-.87V25.6c0-.48-.355-.87-.792-.87h-3.006v.01Z"/><path fill="#FFCE7C" d="M4.919 30h9.606l-2.15-5.9a4.72 4.72 0 0 0-4.043-3.085c-.125-.01-.347.023-.473.036-2.724.281-5.03 3.189-3.92 6.259l.98 2.69Z"/><path fill="#E19747" d="M8.385 21.02c-.14-.01-.29-.02-.43-.02-3.26 0-5.53 3.24-4.42 6.31l.98 2.69h.89l-.98-2.69c-1.06-2.92.95-6.01 3.96-6.29Z"/><path fill="#F92F60" d="M8.24 25.24a1.24 1.24 0 1 0 0-2.48 1.24 1.24 0 0 0 0 2.48Z"/><path fill="#5092FF" d="M11.24 28.24a1.24 1.24 0 1 0 0-2.48 1.24 1.24 0 0 0 0 2.48Z"/><path fill="#86D72F" d="M7.24 29.13a1.24 1.24 0 1 0 0-2.48 1.24 1.24 0 0 0 0 2.48Z"/><path fill="#B87A66" d="M16 18.5c-1.1 0-2-.908-2-2.017v-1.966c0-1.11.9-2.017 2-2.017s2 .908 2 2.017v1.966c0 1.11-.9 2.017-2 2.017Z"/><path fill="#BB806E" d="M12.75 10.625a1.625 1.625 0 1 1-3.25 0 1.625 1.625 0 0 1 3.25 0ZM22.75 10.625a1.625 1.625 0 1 1-3.25 0 1.625 1.625 0 0 1 3.25 0Z"/><path fill="#C68D7B" d="M15.53 3c-2.917 0-5.232 2.407-5.016 5.244l.409 5.687C11.103 15.719 12.544 17 14.316 17h3.381c1.76 0 3.212-1.27 3.382-3.058l.408-5.686c.205-2.838-2.099-5.245-5.015-5.245h-.942V3Z"/><path fill="#593B39" d="M12.223 8.699c.09.13.25.2.4.2.11 0 .22-.03.31-.11l.01-.007c.078-.051.52-.347 1.16-.263.27.04.53-.16.56-.44a.498.498 0 0 0-.44-.56 2.822 2.822 0 0 0-1.904.466l-.006.004c-.22.17-.26.49-.09.71ZM19.045 8.799c.1.07.2.1.31.1.15 0 .3-.06.4-.19.17-.22.13-.54-.09-.71l-.006-.004c-.08-.057-.833-.591-1.904-.466-.27.03-.47.28-.44.56.03.27.28.47.56.44.66-.078 1.114.231 1.167.267l.003.003Z"/><path fill="#fff" d="M12.007 10.28c.15-.62.71-1.08 1.38-1.08.7 0 1.28.49 1.4 1.15a.23.23 0 0 1-.23.28h-2.28c-.18 0-.31-.18-.27-.35ZM19.657 10.28c-.15-.62-.71-1.08-1.38-1.08-.69 0-1.27.49-1.4 1.15-.03.15.08.28.23.28h2.28c.18 0 .31-.17.27-.35Z"/><path fill="#7D4533" d="M12.687 10.39c0-.5.41-.91.91-.91a.9.9 0 0 1 .91.91c0 .08-.01.16-.03.24h-1.76a.986.986 0 0 1-.03-.24ZM18.977 10.39c0-.5-.41-.91-.91-.91a.913.913 0 0 0-.88 1.15h1.76c.02-.08.03-.16.03-.24Z"/><path fill="#000" d="M13.607 9.87a.516.516 0 0 1 .46.76h-.92a.516.516 0 0 1 .46-.76ZM18.067 9.87a.516.516 0 0 0-.46.76h.92a.516.516 0 0 0-.46-.76Z"/><path fill="#fff" d="M13.447 10.03a.16.16 0 1 1-.32 0 .16.16 0 0 1 .32 0ZM17.947 10.03a.16.16 0 1 1-.32 0 .16.16 0 0 1 .32 0Z"/><path fill="#AB6A55" d="m15.645 10.315-.496 1.738c-.103.356.14.722.486.722h.73c.346 0 .59-.366.486-.722l-.496-1.738c-.102-.386-.598-.386-.71 0Z"/><path fill="#990838" d="M16 13.706a3.09 3.09 0 0 1-1.508-.384c-.153-.086-.306.096-.214.245.367.587.999.983 1.722.983.724 0 1.356-.396 1.723-.983.092-.15-.071-.32-.214-.245a3.09 3.09 0 0 1-1.509.384Z"/><path fill="#593B39" d="m20.778 4.369.416.213c.769.384 1.196 1.238 1.015 2.07l-.556 3.054a.648.648 0 0 1-.608.533s.064-.854.096-1.409a.928.928 0 0 0-.31-.757l-.192-.171a1.16 1.16 0 0 1-.395-.876v-.853a.526.526 0 0 0-.395-.513c-.63-.16-1.985-.427-3.853-.427s-3.224.267-3.854.427a.517.517 0 0 0-.394.513v.853c0 .342-.14.652-.396.886l-.18.16a.947.947 0 0 0-.31.758c.031.555.096 1.42.096 1.42a.66.66 0 0 1-.62-.534l-.555-3.052a1.912 1.912 0 0 1 1.036-2.071l.416-.214c.299-.15.566-.341.8-.576l4.793-1.356a2.274 2.274 0 0 1 2.338.534l.811.811c.235.235.502.427.801.577Z"/><path fill="#212121" d="M8.995 5.72c0-.45.23-.86.62-1.09l.27-.16c2.66-1.62 5.72-2.47 8.84-2.47 2.36 0 4.27 1.91 4.27 4.27 0 .4-.33.73-.73.73h-11.99c-.71 0-1.28-.57-1.28-1.28Z"/></svg>
